**kern	**kern
*staff1	*staff1
*head[head1a]	*head[head1a]
*head[head1b]	*head[head1b]
*head[head1aa]	*head[head1aa]
*solo1[solo1a]	*solo1[solo1a]
*solo1[solo1b]	*solo1[solo1b]
*solo1[solo1aa]	*solo1[solo1aa]
=1-	=1-
*clefG2	*clefG2
*k[]	*k[]
*F:	*F:
*M4/4	*M4/4
*>head1a	*>head1a
{8cc\	1F:maj
4f/	.
8g/	.
8a/L	.
8g/	.
8f/	.
8e/J	.
=2	=2
8g/L	2G:min
8a/	.
8b-/	.
8d/J	.
8e/L	2C:dom
8f/	.
8g/	.
8a/J	.
=3	=3
4c/	2F:maj
8r	.
[8e-/	.
8e-/L]	2D:dom
[8c#/	.
8c#/]	.
8B/J	.
=4	=4
4c/	2G:min
8r	.
8d/	.
8e/L	2C:dom
8f/	.
8g/	.
8a/J	.
=5	=5
8g/L	1F:dom
8c/	.
8d-/	.
8e-/J	.
8f/L	.
8g/	.
8a/	.
[8g/J	.
=6	=6
8g/]}	2B-:maj
8r	.
8r	.
{[8g/	.
8g/L]	2B:o7
[8f/	.
8f/]	.
8g/J	.
=7	=7
8b-/L	2F:maj
8g/	.
8a/	.
8g/J	.
8g-/L	2D:dom
8e-/	.
8c/	.
8c#/J	.
=8	=8
4d/	2G:min
8r	.
8a/	.
24g/LL	2C:dom
24a/	.
24g/JJ	.
8f/L	.
8e/	.
8d/J	.
=9	=9
8b-/L	2G:min
8g/	.
8a/	.
8g/J	.
8f/L	2C:dom
8c/	.
8e/	.
8f/J}	.
=10:|!	=10:|!
1r	1F:maj
=11	=11
4r	1E:min
8r	.
*>head1b	*>head1b
{8e/	.
24g/LL	.
24a-/	.
24g/JJ	.
8f#/L	.
8e/	.
8d/J	.
=12||	=12||
8c#/L	1A:dom
8e/	.
8g/	.
8a/J	.
[2b\	.
=13	=13
4b\]	1D:dom
12f#/L	.
12e/	.
12c/J	.
[2b\	.
=14	=14
16b/LL]	1D:dom
16f#/	.
16e/	.
16c/JJ	.
2.b\}	.
=15	=15
2r	1G:dom
4r	.
{8a/L	.
8g/J	.
=16	=16
8f/L	2G:dom
8e/	.
8d/	.
8c/J	.
12B/L	.
12d/	.
12f/J	.
8ee\L	.
8ee-\J	.
=17	=17
8dd\L	1G:min
8dd-\	.
8cc\	.
8a\J	.
8b-\L	.
16cc\L	.
16b-\J	.
8a\	.
8a-\J	.
=18	=18
8g/L	1C:dom
8f/J	.
12e/L	.
12G/	.
12G/J	.
8d-/L	.
[8c/J	.
4c/]}	.
=19	=19
8r	1F:maj
*>head1aa	*>head1aa
{4f/	.
8g/	.
8a/L	.
8g/	.
8f/	.
8e/J	.
=20||	=20||
8g/L	2G:min
8a/	.
8b-/	.
8d/J	.
8e/L	2C:dom
8f/	.
8g/	.
8a/J	.
=21	=21
4c/	2F:maj
8r	.
[8e-/	.
8e-/L]	2D:dom
[8c#/	.
8c#/]	.
8B/J	.
=22	=22
4c/	2G:min
8r	.
8d/	.
8e/L	2C:dom
8f/	.
8g/	.
8a/J	.
=23	=23
8g/L	1F:dom
8c/	.
8d-/	.
8e-/J	.
8f/L	.
8g/	.
8a/	.
[8g/J	.
=24	=24
8g/]	2B-:maj
8r	.
8r	.
[8g/	.
8g/L]	2B:o7
[8f/	.
8f/]	.
8g/J	.
=25	=25
8b-/L	2G:min
8g/	.
8a/	.
8g/J	.
8f/L	2C:dom
8c/	.
8e/	.
8f/J}	.
=26	=26
4r	1F:maj
8r	.
*>solo1a	*>solo1a
{[8e/	.
4e/]	.
8d/L	.
8A/J	.
=27	=27
8B-/L	1F:maj
8c/	.
8A/	.
8B-/J	.
8c/L	.
[8f/J	.
4f/]}	.
=28||	=28||
2r	2G:min
2r	2C:dom
=29	=29
4r	2F:maj
{16e/LL	.
16f/	.
16a/	.
16cc/JJ	.
16ee\LL	2D:dom
16dd\	.
16cc#\	.
16dd\JJ	.
16ff\LL	.
16ee\	.
16dd\	.
16cc#\JJ	.
=30	=30
16cc/LL	2G:min
16a/JJ	.
24b-\LL	.
24cc\	.
24b-\JJ	.
16a/LL	.
16f/	.
16d/	.
16c/JJ	.
4g/}	2C:dom
4r	.
=31	=31
8r	2C:min
{16c/LL	.
16e-/J	.
8g/	.
8b-/J	.
8dd\L	1F:dom
8dd-\	.
8cc\	.
8bn\J	.
=32	=32
8b-/L	2B-:maj
8f/	.
8g/	.
[8a-/J	.
8a-/]	2B:o7
24b-/LL	.
24a-/	.
24g/JJ	.
8a-/L	.
8f/J	.
=33	=33
8g/L	2A:min
8a-/J	.
24g/LL	.
24a-/	.
24g/JJ	.
8f/	.
4a-/}	2D:dom
4r	.
=34	=34
2r	2G:min
8r	2C:dom
{[8b-\L	.
8b-\]	.
8bn\J	.
=35	=35
8b-\	1F:maj
24bn\LL	.
24b-\	.
24a-\JJ	.
8f/L	.
8e-/J	.
6c/	.
6B-/	.
6F/	.
=36||	=36||
8A/L	2G:maj
[8c/J	.
4c/]}	.
2r	2C:dom
=37	=37
4r	1F:maj
8r	.
{8e/	.
12f/L	.
12a/	.
12cc/J	.
8ee\L	.
8ee-\J	.
=38	=38
8dd\L	2G:min
8dd-\	.
8cc\	.
8a\J	.
8b-\L	2C:dom
16cc\L	.
16b-\J	.
8a\	.
8g\J	.
=39	=39
8f/L	2C:min
8c/J	.
12e-/L	.
12g/	.
12b-/J	.
8dd\L	2F:dom
8dd-\	.
8cc\	.
8bn\J	.
=40	=40
8b-/L	2B-:maj
8f/	.
8g/	.
[8a-/J	.
4a-/]}	2B:o7
4r	.
=41	=41
4r	1F:maj
8r	.
{8a/	.
8b-/L	.
[8a/J	.
4a/]}	.
=42	=42
1r	1F:maj
=43	=43
4r	1E:min
8r	.
*>solo1b	*>solo1b
{[8ff#\	.
24ff#\LL]	.
24gg\	.
24ff#\JJ	.
8ee\L	.
8dd\	.
8cc#\J	.
=44||	=44||
8b/L	1A:dom
8a/	.
8g/	.
8f#/J	.
8e/L	.
8c#/J	.
12d/L	.
12fn/	.
12a/J	.
=45	=45
8b-/L	1D:dom
8g-/	.
8e-/	.
8c/J	.
4a/}	.
4r	.
=46	=46
8r	1D:dom
{8g/L	.
8f#/	.
8a/J	.
8e/L	.
8A/	.
8c/	.
8e-/J	.
=47	=47
8c/L	1G:dom
8c#/	.
8d/	.
8cn/J	.
12B/L	.
12d/	.
12cc/J	.
8ee\L	.
[8dd\J	.
=48	=48
4dd\]}	1G:dom
4r	.
4r	.
8r	.
{[8a/	.
=49	=49
4a/]	1G:min
8cc/L	.
8a/J	.
12b-\L	.
12cc\	.
12b-\J	.
8a/L	.
8a-/J	.
=50	=50
8g/L	1C:dom
8f/	.
8e/	.
8c/J	.
8d/L	.
8B-/	.
8G/	.
8A/J	.
=51	=51
8c/L	1F:maj
8B-/J	.
12A/L	.
12c/	.
12e/J	.
8f/L	.
8c/J}	.
4r	.
=52||	=52||
4r	2G:min
8r	.
*>solo1aa	*>solo1aa
{[8e/	.
4e/]	2C:dom
8d/L	.
8B-/J	.
=53	=53
8c/L	1F:maj
8A/J	.
12B-/L	.
12d/	.
12f/J	.
8a/L	.
[8g/J	.
4g/]}	.
=54	=54
2r	2G:min
4r	2C:dom
8r	.
{8c/	.
=55	=55
8a\L	2C-:min
8a\	.
8b-\	.
16cc\L	.
16b-\JJ	.
8a/L	2F:dom
8g/	.
8f/	.
8e-/J	.
=56	=56
8d/L	2B-:maj
8F/	.
8G/	.
8B-/J	.
8d-/L	2E-:dom
8f/	.
8c/	.
8B-/J	.
=57	=57
8A/L	1F:maj
8c/	.
8e/	.
[8f/J	.
4f/]}	.
4r	.
=58	=58
4r	2G:min
{8e/L	.
8f/J	.
8d/L	2C:dom
8e/	.
8c/	.
8d/J	.
=59	=59
8B-/L	1F:maj
8c/J	.
4A/}	.
2r	.
==	==
*-	*-
